X:91
T:Maid at the Spinning Wheel
Z: id:dc-jig-73
M:6/8
L:1/8
K:G Major
E|DGA B3|cBA B3|DGA BAG|F3 AFD|!
DGA B3|cBA B2c|ded cAF|AGF G2:|!
c|BAG AFD|D3AFD|D3 AFD|EFG ABc|!
BAG AFD|D3 AFD|ded cAF|AGF G2:|!
D|GBd gba|gdB ecA|dBG cAG|F3 AFD|!
GBd gba|gdB ecA|fed cAF|AGF G2:|!
c|BAG Afd|Bgd Afd|Bgd AFD|EFG ABc|!
BAG AFD|D3 AFD|ded cAF|AGF G2:|!

